X: 15040
T: George White's Favourite
R: reel
M: 4/4
K: Gmajor
|:Bd|eB B2 eBdB|AGAB GE D2|GB B2 GB B2|(3efe dB A2 Bd|
eB B2 eBdB|AGAB GE D2|GABd gedB|AGAB G2:|
|:gede gaba|g3a ge (d2|d)ega bgag|eaag a2 ga|
bgeg d3e|gede gaba|gfgd (3efg dB|AGAB G2:|

